X:1
T:Joy on earth now appearing
T:Joy on earth now appearing
T:Charles H. Giffen
T:Translation © 1983, Music © 1992, 2004 by Charles H. Giffen
T:Translation © 1983, Music © 1992, 2004 by Charles H. Giffen
T:Translation © 1983, Music © 1992, 2004 by Charles H. Giffen
T:Translation © 1983, Music © 1992, 2004 by Charles H. Giffen
T:Translation © 1983, Music © 1992, 2004 by Charles H. Giffen
C:Charles H. Giffen
Z:Translation © 1983, Music © 1992, 2004 by Charles H. Giffen
%%score ( 1 2 ) [ ( 3 4 ) ( 5 6 ) ]
L:1/8
Q:1/4=72
M:3/4
K:Emin
V:1 treble nm="MusicXML Part"
V:2 treble 
V:3 treble nm="S &amp; A"
V:4 treble 
V:5 bass nm="T &amp; B"
V:6 bass 
V:1
"^Original Ukrainian carol:" E"^Instrument change"F G2 AG | %1
"^Instrument change" F2"^Instrument change" G2 z2 | %2
"^Instrument change" G"^Instrument change"A B2 cB | %3
"^Instrument change" A2"^Instrument change" B2 z2 |: %4
"^Instrument change" B"^Instrument change"c A3 F | %5
"^Instrument change" A"^Instrument change"B G3 E | %6
"^Instrument change" c"^Instrument change"B A2 B2 | %7
"^Instrument change" GF"^Instrument change" E3 z :| z6 | z6 | z6 | z6 |: z6 | z6 | z6 | z6 :| z6 | %17
 z6 | z6 | z6 |: z6 | z6 | z6 | z6 :| z6 | z6 | z6 | z6 | z6 | z6 | z6 | z6 | z6 | z6 | %34
[Q:1/4=48]"^Adagio" z6 | z6 |] %36
V:2
 E^D E2 FE | ^D2 E2 z2 | EF G2 AG | F2 G2 z2 |: GA F3 ^D | FG E3 E | AG F2 G2 | ^D2 E3 z :| x6 | %9
w: No- va ra- dist'- _|sta- la,|ya- ka ne bu- *|va- la:|Nad ver- te- pom|zviz- da yas- na|Svit- lom za- si-|ya- la.||
w: De Khris- tos ro- *|dihv- sya,|Zdi- vih vo- plo- *|tihv- sya,|Yak cho- lo- vik|pe- le- na- mih|U- bo- ho po-|vihv- sya.||
w: An- he- lih spi- *|va- yut':-|"Sla- va" vos- klih- *|cha- yut',|Na ne- be- sakh|i na zem- li|Mihr pro po- vi|da- yut.||
 x6 | x6 | x6 |: x6 | x6 | x6 | x6 :| x6 | x6 | x6 | x6 |: x6 | x6 | x6 | x6 :| x6 | x6 | x6 | x6 | %28
w: |||||||||||||||||||
w: |||||||||||||||||||
w: |||||||||||||||||||
 x6 | x6 | x6 | x6 | x6 | x6 | x6 | x6 |] %36
w: ||||||||
w: ||||||||
w: ||||||||
V:3
 z6 | z6 | z6 | z6 |: z6 | z6 | z6 | z6 :|!mf!"^Instrument change" E"^Instrument change"F G2 AG | %9
w: ||||||||Joy on earth now ap-|
w: ||||||||No- va ra- dist' _|
"^Instrument change" F2"^Instrument change" G2 z2 | %10
w: pear- ing,|
w: sta- la,|
"^Instrument change" G"^Instrument change"A B2 cB | %11
w: Won- drous light to us|
w: ya- ka ne bu- *|
"^Instrument change" A2"^Instrument change" B2 z2 |:!p!"^2nd time:" B"^Instrument change"c A3 F | %13
w: near- ing;|Bright- ly beam- ing|
w: va- la:|Nad ver- te- pom|
"^Instrument change" A"^Instrument change"B G3 E | %14
w: o'er the man- ger|
w: zviz- da yas- na|
"^Instrument change" c"^Instrument change"B A2 B2 | %15
w: Shines the Star of|
w: Svit- lom za- si-|
"^Instrument change" G"^Instrument change"F E3 z :| %16
w: Beth- le- hem.|
w: ya- * la.|
!mp!"^Instrument change" E"^Instrument change"F G2 AG | %17
w: Ho- ly Christ, born in|
w: De Khris- tos ro- *|
"^Instrument change" F2"^Instrument change" G2 z2 | %18
w: glo- ry,|
w: dihv- sya,|
"^Instrument change" G"^Instrument change"A B2 cB | %19
w: Vir- gin born, son of|
w: Zdi- vih vo- plo- *|
"^Instrument change" A2"^Instrument change" B2 z2 |:!pp!"^2nd time :" B"^Instrument change"c A3 F | %21
w: Ma- ry;|Ly- ing low- ly|
w: tihv- sya,|Yak cho- lo- vik|
"^Instrument change" A"^Instrument change"B G3 E | %22
w: in a man- ger,|
w: pe- le- na- mih|
"^Instrument change" c"^Instrument change"B A2 B2 | %23
w: See the babe of|
w: U- bo- ho po-|
"^Instrument change" G"^Instrument change"F E3 z :| %24
w: Beth- le- hem.|
w: vihv- * sya.|
!f!"^Instrument change" E"^Instrument change"F G2 AG | %25
w: An- gels lift up their|
w: An- he- lih spi- *|
"^Instrument change" F2"^Instrument change" G2 z2 | %26
w: voic- es:|
w: va- yut':|
"^Instrument change" G"^Instrument change"A B2 cB |"^Instrument change" A2 B2 z2 | %28
w: "Glo- ri- a in ex-|cel- sis!"|
w: "Sla- va" vos- klih- *|cha- yut',|
!mf!"^Instrument change" B"^Instrument change"c A3 F | %29
w: From the heav- ens|
w: Na ne- be- sakh|
!mp!"^Instrument change" A"^Instrument change"B G3 E | %30
w: to the man- ger,|
w: i na zem- li|
!p!"^Instrument change" c"^Instrument change"B A2 B2 | %31
w: Peace is born in|
w: Mihr pro po- vi|
"^Instrument change" G"^Instrument change"F E2 z2 | %32
w: Beth- le- hem.|
w: da- * yut.|
!mf!"^Instrument change" B"^Instrument change"c"^ritardando" A3 F | %33
w: From the heav- ens|
w: Na ne- be- sakh|
"^Instrument change" A"^Instrument change"B G3 !fermata!E | %34
w: to the man- ger,|
w: i na zem- li|
!ff!"^Instrument change" c"^Instrument change"B A2 !fermata!B2 | %35
w: Peace is born in|
w: Mihr pro po- vi|
"^Instrument change" G"^Instrument change"F !fermata!E3 z |] %36
w: Beth- le- hem.-|
w: da- * yut.|
V:4
 x6 | x6 | x6 | x6 |: x6 | x6 | x6 | x6 :| E^D E2 FE | ^D2 E2 z2 | EF G2 AG | F2 G2 z2 |: %12
 GA F3 ^D | FG E3 E | AG F2 ^D2 | ^DD E3 z :| E^D E2 FE | ^D2 E2 z2 | EF G2 AG | F2 G2 z2 |: %20
 GA F3 ^D | FG E3 E | AG F2 F2 | E^D E3 z :| E^D E=D CE | D2 D2 z2 | EF G2 GG | %27
 G"^Instrument change"F G2 z2 | GA F3 ^D | FG E3 E | GG F2 F2 | E^D E2 z2 | GA F3 ^D | FG E3 E | %34
 GG EF F!fermata!G | ^DD E3 z |] %36
V:5
 z6 | z6 | z6 | z6 |: z6 | z6 | z6 | z6 :|"^Instrument change" G,"^Instrument change"A, B,2 A,A, | %9
w: |||||||||
w: |||||||||
"^Instrument change" A,2"^Instrument change" B,2 z2 | %10
w: |
w: |
"^Instrument change" B,"^Instrument change"D D2 ED | %11
w: |
w: |
"^Instrument change" D2"^Instrument change" D2 z2 |: %12
w: |
w: |
"^Instrument change" z2"^Instrument change" B,B, B,B, | %13
w: Bright- ly beam- ing|
w: Nad ver- te- pom|
"^Instrument change" z2"^Instrument change" B,B, B,B, | %14
w: o'er the man- ger|
w: zviz- da yas- na-|
"^Instrument change" A,"^Instrument change"A, A,2 B,2 | %15
w: Shines the Star of|
w: Svit- lom za- si-|
"^Instrument change" B,"^Instrument change"A, G,3 z :| %16
w: Beth- le- hem.|
w: ya- * la.|
"^Instrument change" G,"^Instrument change"B, B,2 C/B,/ A,/G,/ | %17
w: |
w: |
"^Instrument change" F,B,"^Instrument change" B,2 z2 | %18
w: |
w: |
"^Instrument change" B,"^Instrument change"D D2 E/D/ C/B,/ | %19
w: |
w: |
"^Instrument change" A,D"^Instrument change" D2 z2 |: %20
w: |
w: |
"^Instrument change" z2"^Instrument change" B,B, B,B, | %21
w: Ly- ing low- ly|
w: Yak cho- lo- vik|
"^Instrument change" z2"^Instrument change" B,B, B,B, | %22
w: in a man- ger,|
w: pe- le- na- mih|
"^Instrument change" C"^Instrument change"C D/C/B,/A,/ B,2 | %23
w: See the babe _ _ _ of|
w: U- bo- ho _ _ _ po-|
"^Instrument change" B,"^Instrument change"A, G,3 z :| %24
w: Beth- le- hem.|
w: vihv- * sya.|
"^Instrument change" G,"^Instrument change"A, B,G, E,A, | %25
w: |
w: |
"^Instrument change" A,2"^Instrument change" B,2 z2 | %26
w: |
w: |
"^Instrument change" C"^Instrument change"C D2 CD | %27
w: |
w: |
"^Instrument change" E"^Instrument change"D D2 z2 | %28
w: |
w: |
"^Instrument change" z2"^Instrument change" B,B, B,B, | %29
w: From the heav- ens|
w: Na ne- be- sakh-|
"^Instrument change" z2"^Instrument change" B,B, B,B, | %30
w: to the man- ger,|
w: i na zem- li|
"^Instrument change" E"^Instrument change"D DC B,2 | %31
w: Peace is born _ in|
w: Mihr pro po- * vi|
"^Instrument change" B,"^Instrument change"A, G,2 z2 | %32
w: Beth- le- hem.|
w: da- * yut.|
"^Instrument change" z2"^Instrument change" B,B, B,B, | %33
w: From the heav- ens|
w: Na ne- be- sakh|
"^Instrument change" z2"^Instrument change" B,B, B,B, | %34
w: to the man- ger,|
w: i na zem- li|
"^Instrument change" E"^Instrument change"D C2 !fermata!B,2 | %35
w: Peace is born in|
w: Mihr pro po- vi|
"^Instrument change" B,"^Instrument change"A, ^G,3 z |] %36
w: Beth- le- hem.|
w: da- * yut.|
V:6
 x6 | x6 | x6 | x6 |: x6 | x6 | x6 | x6 :| E,E, E,D, C,A,, | B,,2 E,2 z2 | E,D, G,E, F,G, | %11
 D,2 G,2 z2 |: z2 B,,B,, B,,B,, | z2 E,E, E,E, | A,,A,, D,C, B,,2 | B,,B,, E,3 z :| %16
 E,B,, E,/D,/C,/B,,/ A,,A,, | B,,2 E,2 z2 | E,D, G,/F,/E,/D,/ C,C, | D,2 G,2 z2 |: %20
 z2 B,,^C, ^D,B,, | z2 E,F, G,E, | A,,A,, D,2 ^D,/^C,/B,,/D,/ | E,B,, E,3 z :| E,E, E,B,, A,,C, | %25
 D,2 G,2 z2 | CA, G,F, E,D, | C,D, G,,2 z2 | z2 B,,^C, ^D,B,, | z2 E,F, G,B, | CG, D,2 ^D,2 | %31
 E,B,, E,2 z2 | z2 B,,^C, ^D,B,, | z2 E,F, G,!fermata!B, | CG, A,D, ^D,!fermata!E, | %35
 B,,B,, !fermata![E,,E,]3 z |] %36

